X: 12569
T: Farewell To Philip Lane
R: reel
M: 4/4
K: Fmajor
AFFA FAdc|AFFG AG~G2|AzFG AFAc|dAcA AG~G2:|
Accd cAFG|~A3F GFFG|Azcd cAFG|AGGF ~G2FG|
Accd cAFG|~A3F GFFG|A2AG Adde|dcAF ~G2FG||

